X: 4
T: Paddy Fahey's
R: jig
M: 6/8
L: 1/8
K: Ador
EAB cBc | d^cd e2 a | aec cde | dBA GF^E |EAB c2 e | d^cd e2 a | aec cde | dB^G A2 :|a2 e ^gab | aed cBA | BGB gfg | bag ef^g |a2 b cba | gea g3 | Bcd ged | BA^G A2 :|


Tune 532	Setting 25097

